X:1
T:Title
%%score { 1 | 2 }
L:1/8
Q:1/4=94
M:2/4
K:Bb
V:1 treble nm="Grand Piano"
V:2 bass 
V:1
 [GB]2 [^FA][_Ac] | [GB]2 [EG]2 | [DF]2 [CE][DF] | GE B,2 | [GB]2 [^FA][_Ac] | %5
w: E.~O.~Excell * *|||||
 [B,GB][B,EG] [G,B,E]2 | [_A,DF]2 [B,DG][A,DF] | [G,E]2 z2 | [DF]2 [_D=E][=DF] | G^F G2 | F2 Bd | %11
w: ||||||
 dc [DB]2 | [GB]2 [^FA][_Ac] | [B,GB][B,EG] [G,B,E]2 | [_A,DF]2 [B,DG][A,DF] | [G,E]2 z2 |] %16
w: |||||
V:2
 [E,B,]2 [E,B,][E,B,] | [E,B,]2 [E,B,]2 | [B,,B,]2 [B,,B,][B,,B,] | [E,B,E][E,G,B,] [E,G,]2 | %4
 [E,B,]2 [E,B,][E,B,] | E,E, E,2 | B,,2 B,,B,, | E,2 z2 | [B,,B,]2 [B,,B,][B,,B,] | %9
 [E,B,E][E,A,E] [E,B,E]2 | [F,B,D]2 [F,B,D][F,B,F] | [F,A,F][F,A,E] [B,,B,]2 | %12
 [E,B,]2 [E,B,][E,B,] | E,E, E,2 | B,,2 B,,B,, | E,2 z2 |] %16

